X:18186
T:Valse   Cadet
M:3/4
L:1/4
K:G
GDB|G2G|GDB|A2A/B/|cBA|GFE|\
DEF|E2D|GDB|G2G|GDB|
A2A/B/|cBA|GFE|DEF|1 G3:|2 G2 F/G/\
|:A/F/ A/c/ B/A/|B/G/ B/d/ c/B/|A/F/ A/c/ B/A/|
BGF/G/|A/F/ A/c/ B/A/|B/G/ B/d/ c/B/|\
A/F/ A/c/ B/A/|G3::B2c|ded|A2B|cdB|
G2A|BcB|A2G|A3|B2c|ded|A2B|\
cdB|G2A|BcB|ABA|G3:|
